X: 3205
T: MY BOY TAMMY
Q: "Highland Schottische."
R: Schottische.
%R: shottish
B: James Kerr "Merry Melodies" v.3 p.24 #205
Z: 2016 John Chambers <jc:trillian.mit.edu>
M: C
L: 1/8
K: Em
|:\
vE>vFuG>uA B>^cd2 | A>BA>G (F<D)D2 |\
E>FG>A B>^cd2 | (B<g) f>e (B<e)e2 ::\
e>fg>e d>cB2 | G>Bd>B A>FD2 |\
e<g f>g e>BB>A | G>AB>A (G<E)E2 :|

%%sep 1 1 500
%%sep 1 1 500

